X: 5830
T: Callaghan's
R: hornpipe
M: 4/4
K: Gmajor
g>f|(3efg fg edBA|GA B2 dBGE|DEGA BGBd|(3efg fg edBd|
(3gfg fg edBd|(3efg fa gfed|B2 GB A2 FA|G2 GG G2 Bd|
efgf edBA|GABe dBGE|DEGA BGBd|(3efg fg edBd|
(3gfg fg edBd|(3gfe af gfed|B2 GB A2 FA|G2 GG G2 (3efg|
afge dega|bBBA Gefg|(3agf ge dega|b2 e2 e3 g|
fe (3def gfeg|fe (3def gfef|(3gab af gfed|BABd e2 fg|
afge dega|bBBA Gefg|(3agf ge dega|b2 e2 e3 g|
fe (3def gfeg|fe (3def gfef|(3gab (3agf (3gfe (3fed|Bdef g2 fg|

